X:12366
%15515
T:Sitna Zborenka
L:1/16
O:Bulgaria 
M:2/4
Q:1/4=72
S:The dance was re-transcribed from the "Vancouver International 
S:Folk Dancers Music Book" Deborah Jones (c) 1982 and modified
S:for abc notation software -Seymour 
P:ABCDEHBCDEHFG
K:Am
P:A
|:"Dm"FGGA FED2| EA,FA, "Am" EDC2 |"G" B,CD2 "C" DCDE|"Dm" ~F2FG "G" ~FED2|
"C" FGGA "Dm" FED2|"Am" EA,FA, EDC2 |"G" B,CD2 "C" DCFG|"Dm" D2DA, "G" D2DA, :|
%%sep 10 10
P:B
|:"G" DCB,A, B,CD2| DEFG "C" ~E2EC|"Dm" DEFG FEDC|"C" E2EC E2EC|
"Am" B,CC2 "Dm" DEFG|"G" FEDC E2EC|\
"Dm" FG/2A/2GE "C" FDEC |"Dm" D2DA, "G" D2DA,:|
%%sep 10 10
P:C
|:"G" B,CD2 "C" DCED|"Dm" ~D2DA, "Am" CB,A,2|"G" B,CD2 "C" DCED|"Dm" D2DA, D2DA,:|
%%sep 10 10
P:D
|:"G" D2FG GFFE|"C" D2FG E2EC |"Dm" FGFE "G" D2FG|"C" E2EC E2EC:|
%%sep 10 
